X:155
M:6/8
L:1/8
K:G
|: d2d | ded c2B | c2A c2c | Bcd c2B | A3 d2d | e2e fga | g2G cdc | B2B ABA | G3 :|
K:Gmin
|: dcd | e2d c2d | B2A Bcd | c2B A2G | ^F3 gab | a2g ^fga | g3 dcd | edc B2A | G3 :|

